X: 2
T: The Flowing Bowl
R: reel
M: 4/4
L: 1/8
K: Dmaj
ef|:gfed cA~A2|cAdA cA~A2|gfed cA~A2|1fage d2ef:|2 fage dABc||df~f2 af~f2|dfaf gece|df~f2 af~f2|~g3e cABc|df~f2 af~f2|dfaf gece|~f3d ~g3e|fage d2||


Tune 395	Setting 395

